X: 35698
T: Saint Anne's
R: reel
M: 4/4
K: Dmajor
fedf edcB|A2 FA DAFA|B2GB EBGB|A2 FA DAFA|
fedf edcB|A2 FA DAFA|Beed cABc|d2 dc d2 de:|
|:f2 fd f2 fe|g2 gf g2 gf|edcB Acea|baa^g a3 =g|
f2fd f2fd|g2gf g2gf|edcB Aceg|fddc d2 de:|

